X: 1115
T: Hüseynîaşîrân Seyir
C: Rauf Yektâ
O: Turkey
F: http://compmusic.upf.edu/node/140
N: huseyniasiran--seyir--semai--1--rauf_yekta
N: makam= huseyniasiran
N: form= seyir
N: usul= semai = 3/4
M: 3/4
L: 1/16
K: C _1/4B ^f  
Q: 1/4=120
%%MIDI tuningsystem comma53
d8 e4  | e8 e4  | e2d2 c4 d4  | e8 z4  | d8 d4  | \
w:   |   |   |   |   | 
g8 ^3/4f2g2  | a8 g2^3/4f2  | g2^3/4f2 e8  | 
w:   |   |   | 
d8 e4  | e8 e4  | e2d2 c4 d4  | e8 z4  | d8 g4  | \
w:   |   |   |   |   | 
^3/4f4 g4 a4  | _2/4b4 a4 g4  | ^3/4f4 e8  | \
w:   |   |   | 
d8 e4  | 
w:   | 
e4 d4 c4  | c8 _2/4B4  | _2/4B4 A4 G4  | \
w:   |   |   | 
A4 _2/4B4 c4  | _2/4B4 A4 B4  | A4 G4 ^3/4F4  | \
w:   |   |   | 
G8 z4  | ^3/4F4 G8  | 
w:   |   | 
G8 z4  | G4 ^3/4F8  | ^3/4F4 E4 D4  | D8 _2/4B4  | \
w:   |   |   |   | 
A4 G6^3/4F2  | G4 ^3/4F4 E4  | E8 z4  | |


